assets/site-images/complete-tileplus.svg

<svg style="fill-rule:evenodd;clip-rule:evenodd;stroke-linecap:round;stroke-linejoin:round" xmlns="http://www.w3.org/2000/svg" xml:space="preserve" viewBox="0 0 100 100"><g fill="#4dff81"><path d="M46 34v12H34v8h12v12h8V54h12v-8H54V34h-8zM-4-16v12h-12v8h12v12h8V4h12v-8H4v-12h-8zM-4 84v12h-12v8h12v12h8v-12h12v-8H4V84h-8zM96-16v12H84v8h12v12h8V4h12v-8h-12v-12h-8zM96 84v12H84v8h12v12h8v-12h12v-8h-12V84h-8z" opacity=".5"/></g></svg>

<?xml version="1.0" encoding="UTF-8" standalone="no"?> <!DOCTYPE svg PUBLIC "-//W3C//DTD SVG 1.1//EN" "http://www.w3.org/Graphics/SVG/1.1/DTD/svg11.dtd">
<svg style="fill-rule:evenodd;clip-rule:evenodd;stroke-linecap:round;stroke-linejoin:round;" xmlns:xlink="http://www.w3.org/1999/xlink" xmlns="http://www.w3.org/2000/svg" xml:space="preserve" version="1.1" viewBox="0 0 100 100">
<defs/>
<g id="Layer 1">
<path d="M46+34L46+46L34+46L34+54L46+54L46+66L54+66L54+54L66+54L66+46L54+46L54+34L46+34Z" opacity="0.5" fill="#4dff81"/>
<path d="M-4-16L-4-4L-16-4L-16+4L-4+4L-4+16L4+16L4+4L16+4L16-4L4-4L4-16L-4-16Z" opacity="0.5" fill="#4dff81"/>
<path d="M-4+84L-4+96L-16+96L-16+104L-4+104L-4+116L4+116L4+104L16+104L16+96L4+96L4+84L-4+84Z" opacity="0.5" fill="#4dff81"/>
<path d="M96-16L96-4L84-4L84+4L96+4L96+16L104+16L104+4L116+4L116-4L104-4L104-16L96-16Z" opacity="0.5" fill="#4dff81"/>
<path d="M96+84L96+96L84+96L84+104L96+104L96+116L104+116L104+104L116+104L116+96L104+96L104+84L96+84Z" opacity="0.5" fill="#4dff81"/>
</g>
</svg>
